;generated by ProvelPrint 1.0.0 on Fri, 25 Apr 2025 04:24:23 GMT
;TYPE:Custom
;metadata
;estimated printing time (normal mode)=30m 30s
;customInfo material="cp1"
;customInfo nozzleSize="5mm"
;customInfo cupSize="93x25"
;customInfo nozzleTemp="200C"
;# START GCODE SEQUENCE FOR CUP PRINT#;
G21 ; Set units to millimeters
G90 ; Use absolute positioning
M83 ; use relative distances for extrusion
;## Set temperatures ##
M568 P0 S200 ; set temperature for barrel to 200;
M140 P1 S160  ; set cup heater temperature to 160 and continue
;## Home ##
;G28
;## move to prime position/ pickup cup heater start position ##
G1 Y0 Z48 F6000 ;Z down to cup height + 10 , Y moves back to cup center
G1 X-95 ; only once at correct Z height move in to register with cup heater for pickup
M116 S10 ; wait for temperatures to be reached +/-10C (including cup heater)
;##cup heater removal sequence##
M140 P1 S0 ;cup heater off
G1 Z70 F2250; Z moves up to pick up cup heater
G1 X120 F2250; X right to park cup heater
G1 Z17 F2250; Z down to place cup heater on bed
G1 X90 F2250; X left to disengage cup heater
set global.pelletFeedOn = true  ; enable pellet feed
M98 P"0:/sys/provel/prime.g"   ;prime extruder
G4 S2 ; pause for 2 seconds for prime to finish
G1 Z30 F2250; Z up to CH + 5 for groove fill
;##Groove fill
G1 X50 Y0 F1500 ; Move to start of pre groove fill extrusion
G1 E15 E300 ; extrude a bit to make up for any ooze
G1 X39 Y0 E10 F1500 ; Move to start of circle at the edge, continue slight extrusion
G1 E20 E300 ;extruder a bit to prevent a small gap at the start/end.
 ;Extrude in a circle A
G3 X39 Y0 I-39 J0 E1030 F600 ; Clockwise circle around (0,0) with radius 39mm (1030 tested in practice complete groove fill).
;#End of start gcode sequence for cup print#
;##Spiral vase mode socket print to start immediately following this.
;--------print file in here--------
G1 X39.00 Y0.00 Z30.00 F2250
;START NEW LEVEL
M106 P2 S0 ; set fan speed
G1 X40.37 Y1.98 Z30.01 E0.3209 F2250
G1 X40.23 Y3.96 Z30.02 E0.0239 F2250
G1 X39.98 Y5.93 Z30.02 E0.0358 F2250
G1 X39.64 Y7.89 Z30.03 E0.0477 F2250
G1 X39.21 Y9.82 Z30.04 E0.0597 F2250
G1 X38.68 Y11.73 Z30.05 E0.0716 F2250
G1 X38.06 Y13.62 Z30.05 E0.0835 F2250
G1 X37.34 Y15.47 Z30.06 E0.0955 F2250
G1 X36.54 Y17.28 Z30.07 E0.1074 F2250
G1 X35.65 Y19.05 Z30.08 E0.1193 F2250
G1 X34.67 Y20.78 Z30.09 E0.1313 F2250
G1 X33.61 Y22.46 Z30.09 E0.1432 F2250
G1 X32.47 Y24.08 Z30.1 E0.1552 F2250
G1 X31.25 Y25.64 Z30.11 E0.1671 F2250
G1 X29.95 Y27.15 Z30.12 E0.179 F2250
G1 X28.58 Y28.58 Z30.13 E0.191 F2250
G1 X27.15 Y29.95 Z30.13 E0.2029 F2250
G1 X25.64 Y31.25 Z30.14 E0.2148 F2250
G1 X24.08 Y32.47 Z30.15 E0.2268 F2250
G1 X22.46 Y33.61 Z30.16 E0.2387 F2250
G1 X20.78 Y34.67 Z30.16 E0.2506 F2250
G1 X19.05 Y35.65 Z30.17 E0.2626 F2250
G1 X17.28 Y36.54 Z30.18 E0.2745 F2250
G1 X15.47 Y37.34 Z30.19 E0.2864 F2250
G1 X13.62 Y38.06 Z30.2 E0.2984 F2250
G1 X11.73 Y38.68 Z30.2 E0.3103 F2250
G1 X9.82 Y39.21 Z30.21 E0.3222 F2250
G1 X7.89 Y39.64 Z30.22 E0.3342 F2250
G1 X5.93 Y39.98 Z30.23 E0.3461 F2250
G1 X3.96 Y40.23 Z30.23 E0.358 F2250
G1 X1.98 Y40.37 Z30.24 E0.37 F2250
G1 X0 Y40.42 Z30.25 E0.3819 F2250
G1 X-1.98 Y40.37 Z30.26 E0.3939 F2250
G1 X-3.96 Y40.23 Z30.27 E0.4058 F2250
G1 X-5.93 Y39.98 Z30.27 E0.4177 F2250
G1 X-7.89 Y39.64 Z30.28 E0.4297 F2250
G1 X-9.82 Y39.21 Z30.29 E0.4416 F2250
G1 X-11.73 Y38.68 Z30.3 E0.4535 F2250
G1 X-13.62 Y38.06 Z30.3 E0.4655 F2250
G1 X-15.47 Y37.34 Z30.31 E0.4774 F2250
G1 X-17.28 Y36.54 Z30.32 E0.4893 F2250
G1 X-19.05 Y35.65 Z30.33 E0.5013 F2250
G1 X-20.78 Y34.67 Z30.34 E0.5132 F2250
G1 X-22.46 Y33.61 Z30.34 E0.5251 F2250
G1 X-24.08 Y32.47 Z30.35 E0.5371 F2250
G1 X-25.64 Y31.25 Z30.36 E0.549 F2250
G1 X-27.15 Y29.95 Z30.37 E0.5609 F2250
G1 X-28.58 Y28.58 Z30.38 E0.5729 F2250
G1 X-29.95 Y27.15 Z30.38 E0.5848 F2250
G1 X-31.25 Y25.64 Z30.39 E0.5967 F2250
G1 X-32.47 Y24.08 Z30.4 E0.6087 F2250
G1 X-33.61 Y22.46 Z30.41 E0.6206 F2250
G1 X-34.67 Y20.78 Z30.41 E0.6325 F2250
G1 X-35.65 Y19.05 Z30.42 E0.6445 F2250
G1 X-36.54 Y17.28 Z30.43 E0.6564 F2250
G1 X-37.34 Y15.47 Z30.44 E0.6684 F2250
G1 X-38.06 Y13.62 Z30.45 E0.6803 F2250
G1 X-38.68 Y11.73 Z30.45 E0.6922 F2250
G1 X-39.21 Y9.82 Z30.46 E0.7042 F2250
G1 X-39.64 Y7.89 Z30.47 E0.7161 F2250
G1 X-39.98 Y5.93 Z30.48 E0.728 F2250
G1 X-40.23 Y3.96 Z30.48 E0.74 F2250
G1 X-40.37 Y1.98 Z30.49 E0.7519 F2250
G1 X-40.42 Y0 Z30.5 E0.7638 F2250
G1 X-40.37 Y-1.98 Z30.51 E0.7758 F2250
G1 X-40.23 Y-3.96 Z30.52 E0.7877 F2250
G1 X-39.98 Y-5.93 Z30.52 E0.7996 F2250
G1 X-39.64 Y-7.89 Z30.53 E0.8116 F2250
G1 X-39.21 Y-9.82 Z30.54 E0.8235 F2250
G1 X-38.68 Y-11.73 Z30.55 E0.8354 F2250
G1 X-38.11 Y-13.64 Z30.55 E0.8483 F2250
G1 X-37.68 Y-15.61 Z30.56 E0.8744 F2250
G1 X-37.11 Y-17.55 Z30.57 E0.8891 F2250
G1 X-36.47 Y-19.49 Z30.58 E0.9102 F2250
G1 X-35.7 Y-21.4 Z30.59 E0.9271 F2250
G1 X-34.83 Y-23.27 Z30.59 E0.945 F2250
G1 X-33.85 Y-25.1 Z30.6 E0.962 F2250
G1 X-32.73 Y-26.86 Z30.61 E0.9771 F2250
G1 X-31.52 Y-28.56 Z30.62 E0.9944 F2250
G1 X-30.17 Y-30.17 Z30.63 E1.0083 F2250
G1 X-28.75 Y-31.72 Z30.63 E1.0248 F2250
G1 X-27.22 Y-33.17 Z30.64 E1.0386 F2250
G1 X-25.63 Y-34.55 Z30.65 E1.0545 F2250
G1 X-23.94 Y-35.83 Z30.66 E1.0685 F2250
G1 X-22.21 Y-37.05 Z30.66 E1.0843 F2250
G1 X-20.45 Y-38.25 Z30.67 E1.1028 F2250
G1 X-18.61 Y-39.34 Z30.68 E1.1185 F2250
G1 X-16.7 Y-40.31 Z30.69 E1.134 F2250
G1 X-14.71 Y-41.12 Z30.7 E1.1474 F2250
G1 X-12.65 Y-41.69 Z30.7 E1.1606 F2250
G1 X-10.52 Y-42 Z30.71 E1.1765 F2250
G1 X-8.35 Y-41.99 Z30.72 E1.1993 F2250
G1 X-6.2 Y-41.77 Z30.73 E1.2136 F2250
G1 X-4.07 Y-41.31 Z30.73 E1.2293 F2250
G1 X-2 Y-40.69 Z30.74 E1.2364 F2250
G1 X0 Y-40.42 Z30.75 E1.1643 F2250
G1 X1.98 Y-40.37 Z30.76 E1.1577 F2250
G1 X3.96 Y-40.23 Z30.77 E1.1696 F2250
G1 X5.93 Y-39.98 Z30.77 E1.1816 F2250
G1 X7.89 Y-39.64 Z30.78 E1.1935 F2250
G1 X9.82 Y-39.21 Z30.79 E1.2054 F2250
G1 X11.73 Y-38.68 Z30.8 E1.2174 F2250
G1 X13.62 Y-38.06 Z30.8 E1.2293 F2250
G1 X15.47 Y-37.34 Z30.81 E1.2412 F2250
G1 X17.28 Y-36.54 Z30.82 E1.2532 F2250
G1 X19.05 Y-35.65 Z30.83 E1.2651 F2250
G1 X20.78 Y-34.67 Z30.84 E1.277 F2250
G1 X22.46 Y-33.61 Z30.84 E1.289 F2250
G1 X24.08 Y-32.47 Z30.85 E1.3009 F2250
G1 X25.64 Y-31.25 Z30.86 E1.3128 F2250
G1 X27.15 Y-29.95 Z30.87 E1.3248 F2250
G1 X28.58 Y-28.58 Z30.88 E1.3367 F2250
G1 X29.95 Y-27.15 Z30.88 E1.3486 F2250
G1 X31.25 Y-25.64 Z30.89 E1.3606 F2250
G1 X32.47 Y-24.08 Z30.9 E1.3725 F2250
G1 X33.61 Y-22.46 Z30.91 E1.3844 F2250
G1 X34.67 Y-20.78 Z30.91 E1.3964 F2250
G1 X35.65 Y-19.05 Z30.92 E1.4083 F2250
G1 X36.54 Y-17.28 Z30.93 E1.4202 F2250
G1 X37.34 Y-15.47 Z30.94 E1.4322 F2250
G1 X38.06 Y-13.62 Z30.95 E1.4441 F2250
G1 X38.68 Y-11.73 Z30.95 E1.4561 F2250
G1 X39.21 Y-9.82 Z30.96 E1.468 F2250
G1 X39.64 Y-7.89 Z30.97 E1.4799 F2250
G1 X39.98 Y-5.93 Z30.98 E1.4919 F2250
G1 X40.23 Y-3.96 Z30.98 E1.5038 F2250
G1 X40.37 Y-1.98 Z30.99 E1.5157 F2250
G1 X40.42 Y0 Z31 E1.5277 F2250
;START NEW LEVEL
M106 P2 S0.5 ; set fan speed
G1 X40.37 Y1.98 Z31.01 E1.984 F2250
G1 X40.23 Y3.96 Z31.02 E1.5277 F2250
G1 X39.98 Y5.93 Z31.02 E1.5277 F2250
G1 X39.64 Y7.89 Z31.03 E1.5277 F2250
G1 X39.21 Y9.82 Z31.04 E1.5277 F2250
G1 X38.68 Y11.73 Z31.05 E1.5277 F2250
G1 X38.06 Y13.62 Z31.05 E1.5277 F2250
G1 X37.34 Y15.47 Z31.06 E1.5277 F2250
G1 X36.54 Y17.28 Z31.07 E1.5277 F2250
G1 X35.65 Y19.05 Z31.08 E1.5277 F2250
G1 X34.67 Y20.78 Z31.09 E1.5277 F2250
G1 X33.61 Y22.46 Z31.09 E1.5277 F2250
G1 X32.47 Y24.08 Z31.1 E1.5277 F2250
G1 X31.25 Y25.64 Z31.11 E1.5277 F2250
G1 X29.95 Y27.15 Z31.12 E1.5277 F2250
G1 X28.58 Y28.58 Z31.13 E1.5277 F2250
G1 X27.15 Y29.95 Z31.13 E1.5277 F2250
G1 X25.64 Y31.25 Z31.14 E1.5277 F2250
G1 X24.08 Y32.47 Z31.15 E1.5277 F2250
G1 X22.46 Y33.61 Z31.16 E1.5277 F2250
G1 X20.78 Y34.67 Z31.16 E1.5277 F2250
G1 X19.05 Y35.65 Z31.17 E1.5277 F2250
G1 X17.28 Y36.54 Z31.18 E1.5277 F2250
G1 X15.47 Y37.34 Z31.19 E1.5277 F2250
G1 X13.62 Y38.06 Z31.2 E1.5277 F2250
G1 X11.73 Y38.68 Z31.2 E1.5277 F2250
G1 X9.82 Y39.21 Z31.21 E1.5277 F2250
G1 X7.89 Y39.64 Z31.22 E1.5277 F2250
G1 X5.93 Y39.98 Z31.23 E1.5277 F2250
G1 X3.96 Y40.23 Z31.23 E1.5277 F2250
G1 X1.98 Y40.37 Z31.24 E1.5277 F2250
G1 X0 Y40.42 Z31.25 E1.5277 F2250
G1 X-1.98 Y40.37 Z31.26 E1.5277 F2250
G1 X-3.96 Y40.23 Z31.27 E1.5277 F2250
G1 X-5.93 Y39.98 Z31.27 E1.5277 F2250
G1 X-7.89 Y39.64 Z31.28 E1.5277 F2250
G1 X-9.82 Y39.21 Z31.29 E1.5277 F2250
G1 X-11.73 Y38.68 Z31.3 E1.5277 F2250
G1 X-13.62 Y38.06 Z31.3 E1.5277 F2250
G1 X-15.47 Y37.34 Z31.31 E1.5277 F2250
G1 X-17.28 Y36.54 Z31.32 E1.5277 F2250
G1 X-19.05 Y35.65 Z31.33 E1.5277 F2250
G1 X-20.78 Y34.67 Z31.34 E1.5277 F2250
G1 X-22.46 Y33.61 Z31.34 E1.5277 F2250
G1 X-24.08 Y32.47 Z31.35 E1.5277 F2250
G1 X-25.64 Y31.25 Z31.36 E1.5277 F2250
G1 X-27.15 Y29.95 Z31.37 E1.5277 F2250
G1 X-28.58 Y28.58 Z31.38 E1.5277 F2250
G1 X-29.95 Y27.15 Z31.38 E1.5277 F2250
G1 X-31.25 Y25.64 Z31.39 E1.5277 F2250
G1 X-32.47 Y24.08 Z31.4 E1.5277 F2250
G1 X-33.61 Y22.46 Z31.41 E1.5277 F2250
G1 X-34.67 Y20.78 Z31.41 E1.5277 F2250
G1 X-35.65 Y19.05 Z31.42 E1.5277 F2250
G1 X-36.54 Y17.28 Z31.43 E1.5277 F2250
G1 X-37.34 Y15.47 Z31.44 E1.5277 F2250
G1 X-38.06 Y13.62 Z31.45 E1.5277 F2250
G1 X-38.68 Y11.73 Z31.45 E1.5277 F2250
G1 X-39.21 Y9.82 Z31.46 E1.5277 F2250
G1 X-39.64 Y7.89 Z31.47 E1.5277 F2250
G1 X-39.98 Y5.93 Z31.48 E1.5277 F2250
G1 X-40.23 Y3.96 Z31.48 E1.5277 F2250
G1 X-40.37 Y1.98 Z31.49 E1.5277 F2250
G1 X-40.42 Y0 Z31.5 E1.5277 F2250
G1 X-40.37 Y-1.98 Z31.51 E1.5277 F2250
G1 X-40.23 Y-3.96 Z31.52 E1.5277 F2250
G1 X-39.98 Y-5.93 Z31.52 E1.5277 F2250
G1 X-39.64 Y-7.89 Z31.53 E1.5277 F2250
G1 X-39.4 Y-9.87 Z31.54 E1.5384 F2250
G1 X-39.17 Y-11.88 Z31.55 E1.5602 F2250
G1 X-38.75 Y-13.87 Z31.55 E1.5609 F2250
G1 X-38.29 Y-15.86 Z31.56 E1.5772 F2250
G1 X-37.69 Y-17.83 Z31.57 E1.5821 F2250
G1 X-37.02 Y-19.79 Z31.58 E1.5965 F2250
G1 X-36.23 Y-21.71 Z31.59 E1.6035 F2250
G1 X-35.33 Y-23.61 Z31.59 E1.6135 F2250
G1 X-34.32 Y-25.45 Z31.6 E1.6205 F2250
G1 X-33.18 Y-27.23 Z31.61 E1.6259 F2250
G1 X-31.96 Y-28.97 Z31.62 E1.6337 F2250
G1 X-30.59 Y-30.59 Z31.63 E1.636 F2250
G1 X-29.17 Y-32.19 Z31.63 E1.6438 F2250
G1 X-27.62 Y-33.65 Z31.64 E1.645 F2250
G1 X-26.02 Y-35.09 Z31.65 E1.6524 F2250
G1 X-24.31 Y-36.39 Z31.66 E1.6535 F2250
G1 X-22.57 Y-37.66 Z31.66 E1.6607 F2250
G1 X-20.78 Y-38.88 Z31.67 E1.6683 F2250
G1 X-18.94 Y-40.05 Z31.68 E1.6787 F2250
G1 X-17 Y-41.05 Z31.69 E1.6797 F2250
G1 X-15 Y-41.93 Z31.7 E1.6831 F2250
G1 X-12.9 Y-42.53 Z31.7 E1.6829 F2250
G1 X-10.75 Y-42.9 Z31.71 E1.684 F2250
G1 X-8.54 Y-42.91 Z31.72 E1.702 F2250
G1 X-6.33 Y-42.71 Z31.73 E1.7021 F2250
G1 X-4.16 Y-42.27 Z31.73 E1.7054 F2250
G1 X-2.05 Y-41.65 Z31.74 E1.6987 F2250
G1 X0 Y-40.91 Z31.75 E1.6751 F2250
G1 X1.98 Y-40.37 Z31.76 E1.5828 F2250
G1 X3.96 Y-40.23 Z31.77 E1.5277 F2250
G1 X5.93 Y-39.98 Z31.77 E1.5277 F2250
G1 X7.89 Y-39.64 Z31.78 E1.5277 F2250
G1 X9.82 Y-39.21 Z31.79 E1.5277 F2250
G1 X11.73 Y-38.68 Z31.8 E1.5277 F2250
G1 X13.62 Y-38.06 Z31.8 E1.5277 F2250
G1 X15.47 Y-37.34 Z31.81 E1.5277 F2250
G1 X17.28 Y-36.54 Z31.82 E1.5277 F2250
G1 X19.05 Y-35.65 Z31.83 E1.5277 F2250
G1 X20.78 Y-34.67 Z31.84 E1.5277 F2250
G1 X22.46 Y-33.61 Z31.84 E1.5277 F2250
G1 X24.08 Y-32.47 Z31.85 E1.5277 F2250
G1 X25.64 Y-31.25 Z31.86 E1.5277 F2250
G1 X27.15 Y-29.95 Z31.87 E1.5277 F2250
G1 X28.58 Y-28.58 Z31.88 E1.5277 F2250
G1 X29.95 Y-27.15 Z31.88 E1.5277 F2250
G1 X31.25 Y-25.64 Z31.89 E1.5277 F2250
G1 X32.47 Y-24.08 Z31.9 E1.5277 F2250
G1 X33.61 Y-22.46 Z31.91 E1.5277 F2250
G1 X34.67 Y-20.78 Z31.91 E1.5277 F2250
G1 X35.65 Y-19.05 Z31.92 E1.5277 F2250
G1 X36.54 Y-17.28 Z31.93 E1.5277 F2250
G1 X37.34 Y-15.47 Z31.94 E1.5277 F2250
G1 X38.06 Y-13.62 Z31.95 E1.5277 F2250
G1 X38.68 Y-11.73 Z31.95 E1.5277 F2250
G1 X39.21 Y-9.82 Z31.96 E1.5277 F2250
G1 X39.64 Y-7.89 Z31.97 E1.5277 F2250
G1 X39.98 Y-5.93 Z31.98 E1.5277 F2250
G1 X40.23 Y-3.96 Z31.98 E1.5277 F2250
G1 X40.37 Y-1.98 Z31.99 E1.5277 F2250
G1 X40.42 Y0 Z32 E1.5277 F2250
;START NEW LEVEL
G1 X40.37 Y1.98 Z32.01 E1.984 F2250
G1 X40.23 Y3.96 Z32.02 E1.5277 F2250
G1 X39.98 Y5.93 Z32.02 E1.5277 F2250
G1 X39.64 Y7.89 Z32.03 E1.5277 F2250
G1 X39.21 Y9.82 Z32.04 E1.5277 F2250
G1 X38.68 Y11.73 Z32.05 E1.5277 F2250
G1 X38.06 Y13.62 Z32.05 E1.5277 F2250
G1 X37.34 Y15.47 Z32.06 E1.5277 F2250
G1 X36.54 Y17.28 Z32.07 E1.5277 F2250
G1 X35.65 Y19.05 Z32.08 E1.5277 F2250
G1 X34.67 Y20.78 Z32.09 E1.5277 F2250
G1 X33.61 Y22.46 Z32.09 E1.5277 F2250
G1 X32.47 Y24.08 Z32.1 E1.5277 F2250
G1 X31.25 Y25.64 Z32.11 E1.5277 F2250
G1 X29.95 Y27.15 Z32.12 E1.5277 F2250
G1 X28.58 Y28.58 Z32.13 E1.5277 F2250
G1 X27.15 Y29.95 Z32.13 E1.5277 F2250
G1 X25.64 Y31.25 Z32.14 E1.5277 F2250
G1 X24.08 Y32.47 Z32.15 E1.5277 F2250
G1 X22.46 Y33.61 Z32.16 E1.5277 F2250
G1 X20.78 Y34.67 Z32.16 E1.5277 F2250
G1 X19.05 Y35.65 Z32.17 E1.5277 F2250
G1 X17.28 Y36.54 Z32.18 E1.5277 F2250
G1 X15.47 Y37.34 Z32.19 E1.5277 F2250
G1 X13.62 Y38.06 Z32.2 E1.5277 F2250
G1 X11.73 Y38.68 Z32.2 E1.5277 F2250
G1 X9.82 Y39.21 Z32.21 E1.5277 F2250
G1 X7.89 Y39.64 Z32.22 E1.5277 F2250
G1 X5.93 Y39.98 Z32.23 E1.5277 F2250
G1 X3.96 Y40.23 Z32.23 E1.5277 F2250
G1 X1.98 Y40.37 Z32.24 E1.5277 F2250
G1 X0 Y40.42 Z32.25 E1.5277 F2250
G1 X-1.98 Y40.37 Z32.26 E1.5277 F2250
G1 X-3.96 Y40.23 Z32.27 E1.5277 F2250
G1 X-5.93 Y39.98 Z32.27 E1.5277 F2250
G1 X-7.89 Y39.64 Z32.28 E1.5277 F2250
G1 X-9.82 Y39.21 Z32.29 E1.5277 F2250
G1 X-11.73 Y38.68 Z32.3 E1.5277 F2250
G1 X-13.62 Y38.06 Z32.3 E1.5277 F2250
G1 X-15.47 Y37.34 Z32.31 E1.5277 F2250
G1 X-17.28 Y36.54 Z32.32 E1.5277 F2250
G1 X-19.05 Y35.65 Z32.33 E1.5277 F2250
G1 X-20.78 Y34.67 Z32.34 E1.5277 F2250
G1 X-22.46 Y33.61 Z32.34 E1.5277 F2250
G1 X-24.08 Y32.47 Z32.35 E1.5277 F2250
G1 X-25.64 Y31.25 Z32.36 E1.5277 F2250
G1 X-27.15 Y29.95 Z32.37 E1.5277 F2250
G1 X-28.58 Y28.58 Z32.38 E1.5277 F2250
G1 X-29.95 Y27.15 Z32.38 E1.5277 F2250
G1 X-31.25 Y25.64 Z32.39 E1.5277 F2250
G1 X-32.47 Y24.08 Z32.4 E1.5277 F2250
G1 X-33.61 Y22.46 Z32.41 E1.5277 F2250
G1 X-34.67 Y20.78 Z32.41 E1.5277 F2250
G1 X-35.65 Y19.05 Z32.42 E1.5277 F2250
G1 X-36.54 Y17.28 Z32.43 E1.5277 F2250
G1 X-37.34 Y15.47 Z32.44 E1.5277 F2250
G1 X-38.06 Y13.62 Z32.45 E1.5277 F2250
G1 X-38.68 Y11.73 Z32.45 E1.5277 F2250
G1 X-39.21 Y9.82 Z32.46 E1.5277 F2250
G1 X-39.64 Y7.89 Z32.47 E1.5277 F2250
G1 X-39.98 Y5.93 Z32.48 E1.5277 F2250
G1 X-40.23 Y3.96 Z32.48 E1.5277 F2250
G1 X-40.37 Y1.98 Z32.49 E1.5277 F2250
G1 X-40.42 Y0 Z32.5 E1.5277 F2250
G1 X-40.37 Y-1.98 Z32.51 E1.5277 F2250
G1 X-40.31 Y-3.97 Z32.52 E1.5304 F2250
G1 X-40.26 Y-5.97 Z32.52 E1.542 F2250
G1 X-40.17 Y-7.99 Z32.53 E1.5559 F2250
G1 X-39.97 Y-10.01 Z32.54 E1.5641 F2250
G1 X-39.73 Y-12.05 Z32.55 E1.5824 F2250
G1 X-39.31 Y-14.07 Z32.55 E1.5834 F2250
G1 X-38.82 Y-16.08 Z32.56 E1.5966 F2250
G1 X-38.2 Y-18.07 Z32.57 E1.6032 F2250
G1 X-37.5 Y-20.04 Z32.58 E1.6145 F2250
G1 X-36.69 Y-21.99 Z32.59 E1.624 F2250
G1 X-35.77 Y-23.9 Z32.59 E1.6319 F2250
G1 X-34.74 Y-25.77 Z32.6 E1.6405 F2250
G1 X-33.59 Y-27.57 Z32.61 E1.6458 F2250
G1 X-32.35 Y-29.32 Z32.62 E1.6537 F2250
G1 X-30.98 Y-30.98 Z32.63 E1.657 F2250
G1 X-29.54 Y-32.59 Z32.63 E1.6646 F2250
G1 X-27.98 Y-34.09 Z32.64 E1.6668 F2250
G1 X-26.37 Y-35.55 Z32.65 E1.6746 F2250
G1 X-24.65 Y-36.89 Z32.66 E1.6769 F2250
G1 X-22.9 Y-38.2 Z32.66 E1.6849 F2250
G1 X-21.08 Y-39.44 Z32.67 E1.6925 F2250
G1 X-19.22 Y-40.65 Z32.68 E1.7052 F2250
G1 X-17.26 Y-41.66 Z32.69 E1.7047 F2250
G1 X-15.24 Y-42.59 Z32.7 E1.7102 F2250
G1 X-13.11 Y-43.2 Z32.7 E1.7091 F2250
G1 X-10.93 Y-43.64 Z32.71 E1.7077 F2250
G1 X-8.68 Y-43.66 Z32.72 E1.7298 F2250
G1 X-6.46 Y-43.52 Z32.73 E1.7203 F2250
G1 X-4.24 Y-43.07 Z32.73 E1.7378 F2250
G1 X-2.09 Y-42.5 Z32.74 E1.7176 F2250
G1 X0 Y-41.74 Z32.75 E1.7098 F2250
G1 X2.01 Y-40.81 Z32.76 E1.7013 F2250
G1 X3.96 Y-40.23 Z32.77 E1.5731 F2250
G1 X5.93 Y-39.98 Z32.77 E1.5277 F2250
G1 X7.89 Y-39.64 Z32.78 E1.5277 F2250
G1 X9.82 Y-39.21 Z32.79 E1.5277 F2250
G1 X11.73 Y-38.68 Z32.8 E1.5277 F2250
G1 X13.62 Y-38.06 Z32.8 E1.5277 F2250
G1 X15.47 Y-37.34 Z32.81 E1.5277 F2250
G1 X17.28 Y-36.54 Z32.82 E1.5277 F2250
G1 X19.05 Y-35.65 Z32.83 E1.5277 F2250
G1 X20.78 Y-34.67 Z32.84 E1.5277 F2250
G1 X22.46 Y-33.61 Z32.84 E1.5277 F2250
G1 X24.08 Y-32.47 Z32.85 E1.5277 F2250
