;generated by ProvelPrint 1.0.0 on Fri, 30 May 2025 01:22:06 GMT
;TYPE:Custom
;metadata
;customInfo material="cp1"
;customInfo nozzleSize="5mm"
;customInfo cupSize="93x25"
;customInfo nozzleTemp="200C"
;# START GCODE SEQUENCE FOR CUP PRINT#;
G21 ; Set units to millimeters
G90 ; Use absolute positioning
M83 ; use relative distances for extrusion
;## Set temperatures ##
M568 P0 S200 ; set temperature for barrel to 200;
M140 P1 S160  ; set cup heater temperature to 160 and continue
;## Home ##
;G28
;## move to prime position/ pickup cup heater start position ##
G1 X-95 ; only once at correct Z height move in to register with cup heater for pickup
G1 Y0 Z48 F6000 ;Z down to cup height + 10 , Y moves back to cup center
M116 S10 ; wait for temperatures to be reached +/-10C (including cup heater)
;##cup heater removal sequence##
M98 P"0:/sys/provel/prime.g"   ;prime extruder
M140 P1 S0 ;cup heater off
G1 Z70 F2250; Z moves up to pick up cup heater
G1 X120 F6000; X right to park cup heater
G1 Z17 F2250; Z down to place cup heater on bed
G1 X90 F2250; X left to disengage cup heater
set global.pelletFeedOn = true  ; enable pellet feed
M98 P"0:/sys/provel/prime.g"   ;prime extruder
G4 S2 ; pause for 2 seconds for prime to finish
G1 Z30 F2250; Z up to CH + 5 for groove fill
;##Groove fill
G1 X50 Y0 F2250 ; Move to start of pre groove fill extrusion
G1 E15 E300 ; extrude a bit to make up for any ooze
G1 X39 Y0 E10 F2250 ; Move to start of circle at the edge, continue slight extrusion
G1 E20 E300 ;extruder a bit to prevent a small gap at the start/end.
 ;Extrude in a circle A
G3 X39 Y0 I-39 J0 E1030 F600 ; Clockwise circle around (0,0) with radius 39mm (1030 tested in practice complete groove fill).
;#End of start gcode sequence for cup print#
;##Spiral vase mode socket print to start immediately following this.
;--------print file in here--------
G1 X39.00 Y0.00 Z30.00 F2250
;START NEW LEVEL
M106 P2 S0 ; set fan speed
G1 X-40.37 Y-1.98 Z30 E0.3428 F2250
G1 X-40.23 Y-3.96 Z30 E0.0239 F2250
G1 X-39.98 Y-5.93 Z30 E0.0358 F2250
G1 X-39.64 Y-7.89 Z30 E0.0477 F2250
G1 X-39.21 Y-9.82 Z30 E0.0597 F2250
G1 X-38.68 Y-11.73 Z30 E0.0716 F2250
G1 X-38.06 Y-13.62 Z30 E0.0835 F2250
G1 X-37.34 Y-15.47 Z30 E0.0955 F2250
G1 X-36.54 Y-17.28 Z30 E0.1074 F2250
G1 X-35.65 Y-19.05 Z30 E0.1193 F2250
G1 X-34.67 Y-20.78 Z30 E0.1313 F2250
G1 X-33.61 Y-22.46 Z30 E0.1432 F2250
G1 X-32.47 Y-24.08 Z30 E0.1552 F2250
G1 X-31.25 Y-25.64 Z30 E0.1671 F2250
G1 X-29.95 Y-27.15 Z30 E0.179 F2250
G1 X-28.58 Y-28.58 Z30 E0.191 F2250
G1 X-27.15 Y-29.95 Z30 E0.2029 F2250
G1 X-25.64 Y-31.25 Z30 E0.2148 F2250
G1 X-24.08 Y-32.47 Z30 E0.2268 F2250
G1 X-22.46 Y-33.61 Z30 E0.2387 F2250
G1 X-20.78 Y-34.67 Z30 E0.2506 F2250
G1 X-19.05 Y-35.65 Z30 E0.2626 F2250
G1 X-17.28 Y-36.54 Z30 E0.2745 F2250
G1 X-15.47 Y-37.34 Z30 E0.2864 F2250
G1 X-13.62 Y-38.06 Z30 E0.2984 F2250
G1 X-11.73 Y-38.68 Z30 E0.3103 F2250
G1 X-9.82 Y-39.21 Z30 E0.3222 F2250
G1 X-7.89 Y-39.64 Z30 E0.3342 F2250
G1 X-5.93 Y-39.98 Z30 E0.3461 F2250
G1 X-3.96 Y-40.23 Z30 E0.358 F2250
G1 X-1.98 Y-40.37 Z30 E0.37 F2250
G1 X0 Y-40.42 Z30 E0.3819 F2250
G1 X1.98 Y-40.37 Z30 E0.3938 F2250
G1 X3.96 Y-40.23 Z30 E0.4058 F2250
G1 X5.93 Y-39.98 Z30 E0.4177 F2250
G1 X7.89 Y-39.64 Z30 E0.4297 F2250
G1 X9.82 Y-39.21 Z30 E0.4416 F2250
G1 X11.73 Y-38.68 Z30 E0.4535 F2250
G1 X13.62 Y-38.06 Z30 E0.4655 F2250
G1 X15.47 Y-37.34 Z30 E0.4774 F2250
G1 X17.28 Y-36.54 Z30 E0.4893 F2250
G1 X19.05 Y-35.65 Z30 E0.5013 F2250
G1 X20.78 Y-34.67 Z30 E0.5132 F2250
G1 X22.46 Y-33.61 Z30 E0.5251 F2250
G1 X24.08 Y-32.47 Z30 E0.5371 F2250
G1 X25.64 Y-31.25 Z30 E0.549 F2250
G1 X27.15 Y-29.95 Z30 E0.5609 F2250
G1 X28.58 Y-28.58 Z30 E0.5729 F2250
G1 X29.95 Y-27.15 Z30 E0.5848 F2250
G1 X31.25 Y-25.64 Z30 E0.5967 F2250
G1 X32.47 Y-24.08 Z30 E0.6087 F2250
G1 X33.61 Y-22.46 Z30 E0.6206 F2250
G1 X34.67 Y-20.78 Z30 E0.6325 F2250
G1 X35.65 Y-19.05 Z30 E0.6445 F2250
G1 X36.54 Y-17.28 Z30 E0.6564 F2250
G1 X37.34 Y-15.47 Z30 E0.6683 F2250
G1 X38.06 Y-13.62 Z30 E0.6803 F2250
G1 X38.68 Y-11.73 Z30 E0.6922 F2250
G1 X39.21 Y-9.82 Z30 E0.7042 F2250
G1 X39.64 Y-7.89 Z30 E0.7161 F2250
G1 X39.98 Y-5.93 Z30 E0.728 F2250
G1 X40.23 Y-3.96 Z30 E0.74 F2250
G1 X40.37 Y-1.98 Z30 E0.7519 F2250
G1 X40.42 Y0 Z30 E0.7638 F2250
G1 X40.37 Y1.98 Z30 E0.7758 F2250
G1 X40.23 Y3.96 Z30 E0.7877 F2250
G1 X39.98 Y5.93 Z30 E0.7996 F2250
G1 X39.64 Y7.89 Z30 E0.8116 F2250
G1 X39.21 Y9.82 Z30 E0.8235 F2250
G1 X38.68 Y11.73 Z30 E0.8354 F2250
G1 X38.06 Y13.62 Z30 E0.8474 F2250
G1 X37.34 Y15.47 Z30 E0.8593 F2250
G1 X36.54 Y17.28 Z30 E0.8712 F2250
G1 X35.65 Y19.05 Z30 E0.8832 F2250
G1 X34.67 Y20.78 Z30 E0.8951 F2250
G1 X33.61 Y22.46 Z30 E0.907 F2250
G1 X32.47 Y24.08 Z30 E0.919 F2250
G1 X31.25 Y25.64 Z30 E0.9309 F2250
G1 X29.95 Y27.15 Z30 E0.9428 F2250
G1 X28.58 Y28.58 Z30 E0.9548 F2250
G1 X27.15 Y29.95 Z30 E0.9667 F2250
G1 X25.64 Y31.25 Z30 E0.9787 F2250
G1 X24.08 Y32.47 Z30 E0.9906 F2250
G1 X22.46 Y33.61 Z30 E1.0025 F2250
G1 X20.78 Y34.67 Z30 E1.0145 F2250
G1 X19.05 Y35.65 Z30 E1.0264 F2250
G1 X17.28 Y36.54 Z30 E1.0383 F2250
G1 X15.47 Y37.34 Z30 E1.0503 F2250
G1 X13.62 Y38.06 Z30 E1.0622 F2250
G1 X11.73 Y38.68 Z30 E1.0741 F2250
G1 X9.82 Y39.21 Z30 E1.0861 F2250
G1 X7.89 Y39.64 Z30 E1.098 F2250
G1 X5.93 Y39.98 Z30 E1.1099 F2250
G1 X3.96 Y40.23 Z30 E1.1219 F2250
G1 X1.98 Y40.37 Z30 E1.1338 F2250
G1 X0 Y40.42 Z30 E1.1457 F2250
G1 X-1.98 Y40.37 Z30 E1.1577 F2250
G1 X-3.96 Y40.23 Z30 E1.1696 F2250
G1 X-5.93 Y39.98 Z30 E1.1815 F2250
G1 X-7.89 Y39.64 Z30 E1.1935 F2250
G1 X-9.82 Y39.21 Z30 E1.2054 F2250
G1 X-11.73 Y38.68 Z30 E1.2173 F2250
G1 X-13.62 Y38.06 Z30 E1.2293 F2250
G1 X-15.47 Y37.34 Z30 E1.2412 F2250
G1 X-17.28 Y36.54 Z30 E1.2532 F2250
G1 X-19.05 Y35.65 Z30 E1.2651 F2250
G1 X-20.78 Y34.67 Z30 E1.277 F2250
G1 X-22.46 Y33.61 Z30 E1.289 F2250
G1 X-24.08 Y32.47 Z30 E1.3009 F2250
G1 X-25.64 Y31.25 Z30 E1.3128 F2250
G1 X-27.15 Y29.95 Z30 E1.3248 F2250
G1 X-28.58 Y28.58 Z30 E1.3367 F2250
G1 X-29.95 Y27.15 Z30 E1.3486 F2250
G1 X-31.25 Y25.64 Z30 E1.3606 F2250
G1 X-32.47 Y24.08 Z30 E1.3725 F2250
G1 X-33.61 Y22.46 Z30 E1.3844 F2250
G1 X-34.67 Y20.78 Z30 E1.3964 F2250
G1 X-35.65 Y19.05 Z30 E1.4083 F2250
G1 X-36.54 Y17.28 Z30 E1.4202 F2250
G1 X-37.34 Y15.47 Z30 E1.4322 F2250
G1 X-38.06 Y13.62 Z30 E1.4441 F2250
G1 X-38.68 Y11.73 Z30 E1.456 F2250
G1 X-39.21 Y9.82 Z30 E1.468 F2250
G1 X-39.64 Y7.89 Z30 E1.4799 F2250
G1 X-39.98 Y5.93 Z30 E1.4918 F2250
G1 X-40.23 Y3.96 Z30 E1.5038 F2250
G1 X-40.37 Y1.98 Z30 E1.5157 F2250
G1 X-40.42 Y0 Z30 E1.5277 F2250
;START NEW LEVEL
M106 P2 S0.5 ; set fan speed
G1 X-40.37 Y-1.98 Z31 E2.2217 F2250
G1 X-40.23 Y-3.96 Z31 E1.5277 F2250
G1 X-39.98 Y-5.93 Z31 E1.5277 F2250
G1 X-39.64 Y-7.89 Z31 E1.5277 F2250
G1 X-39.21 Y-9.82 Z31 E1.5277 F2250
G1 X-38.68 Y-11.73 Z31 E1.5277 F2250
G1 X-38.06 Y-13.62 Z31 E1.5277 F2250
G1 X-37.34 Y-15.47 Z31 E1.5277 F2250
G1 X-36.54 Y-17.28 Z31 E1.5277 F2250
G1 X-35.65 Y-19.05 Z31 E1.5277 F2250
G1 X-34.67 Y-20.78 Z31 E1.5277 F2250
G1 X-33.61 Y-22.46 Z31 E1.5277 F2250
G1 X-32.47 Y-24.08 Z31 E1.5277 F2250
G1 X-31.25 Y-25.64 Z31 E1.5277 F2250
G1 X-29.95 Y-27.15 Z31 E1.5277 F2250
G1 X-28.58 Y-28.58 Z31 E1.5277 F2250
G1 X-27.15 Y-29.95 Z31 E1.5277 F2250
G1 X-25.64 Y-31.25 Z31 E1.5277 F2250
G1 X-24.08 Y-32.47 Z31 E1.5277 F2250
G1 X-22.46 Y-33.61 Z31 E1.5277 F2250
G1 X-20.78 Y-34.67 Z31 E1.5277 F2250
G1 X-19.05 Y-35.65 Z31 E1.5277 F2250
G1 X-17.28 Y-36.54 Z31 E1.5277 F2250
G1 X-15.47 Y-37.34 Z31 E1.5277 F2250
G1 X-13.62 Y-38.06 Z31 E1.5277 F2250
G1 X-11.73 Y-38.68 Z31 E1.5277 F2250
G1 X-9.82 Y-39.21 Z31 E1.5277 F2250
G1 X-7.89 Y-39.64 Z31 E1.5277 F2250
G1 X-5.93 Y-39.98 Z31 E1.5277 F2250
G1 X-3.96 Y-40.23 Z31 E1.5277 F2250
G1 X-1.98 Y-40.37 Z31 E1.5277 F2250
G1 X0 Y-40.42 Z31 E1.5277 F2250
G1 X1.98 Y-40.37 Z31 E1.5277 F2250
G1 X3.96 Y-40.23 Z31 E1.5277 F2250
G1 X5.93 Y-39.98 Z31 E1.5277 F2250
G1 X7.89 Y-39.64 Z31 E1.5277 F2250
G1 X9.82 Y-39.21 Z31 E1.5277 F2250
G1 X11.73 Y-38.68 Z31 E1.5277 F2250
G1 X13.62 Y-38.06 Z31 E1.5277 F2250
G1 X15.47 Y-37.34 Z31 E1.5277 F2250
G1 X17.28 Y-36.54 Z31 E1.5277 F2250
G1 X19.05 Y-35.65 Z31 E1.5277 F2250
G1 X20.78 Y-34.67 Z31 E1.5277 F2250
G1 X22.46 Y-33.61 Z31 E1.5277 F2250
G1 X24.08 Y-32.47 Z31 E1.5277 F2250
G1 X25.64 Y-31.25 Z31 E1.5277 F2250
G1 X27.15 Y-29.95 Z31 E1.5277 F2250
G1 X28.58 Y-28.58 Z31 E1.5277 F2250
G1 X29.95 Y-27.15 Z31 E1.5277 F2250
G1 X31.25 Y-25.64 Z31 E1.5277 F2250
G1 X32.47 Y-24.08 Z31 E1.5277 F2250
G1 X33.61 Y-22.46 Z31 E1.5277 F2250
G1 X34.67 Y-20.78 Z31 E1.5277 F2250
G1 X35.65 Y-19.05 Z31 E1.5277 F2250
G1 X36.54 Y-17.28 Z31 E1.5277 F2250
G1 X37.34 Y-15.47 Z31 E1.5277 F2250
G1 X38.06 Y-13.62 Z31 E1.5277 F2250
G1 X38.68 Y-11.73 Z31 E1.5277 F2250
G1 X39.21 Y-9.82 Z31 E1.5277 F2250
G1 X39.64 Y-7.89 Z31 E1.5277 F2250
G1 X39.98 Y-5.93 Z31 E1.5277 F2250
G1 X40.23 Y-3.96 Z31 E1.5277 F2250
G1 X40.37 Y-1.98 Z31 E1.5277 F2250
G1 X40.42 Y0 Z31 E1.5277 F2250
G1 X40.37 Y1.98 Z31 E1.5277 F2250
G1 X40.23 Y3.96 Z31 E1.5277 F2250
G1 X39.98 Y5.93 Z31 E1.5277 F2250
G1 X39.64 Y7.89 Z31 E1.5277 F2250
G1 X39.21 Y9.82 Z31 E1.5277 F2250
G1 X38.68 Y11.73 Z31 E1.5277 F2250
G1 X38.06 Y13.62 Z31 E1.5277 F2250
G1 X37.34 Y15.47 Z31 E1.5277 F2250
G1 X36.54 Y17.28 Z31 E1.5277 F2250
G1 X35.65 Y19.05 Z31 E1.5277 F2250
G1 X34.67 Y20.78 Z31 E1.5277 F2250
G1 X33.61 Y22.46 Z31 E1.5277 F2250
G1 X32.47 Y24.08 Z31 E1.5277 F2250
G1 X31.25 Y25.64 Z31 E1.5277 F2250
G1 X29.95 Y27.15 Z31 E1.5277 F2250
G1 X28.58 Y28.58 Z31 E1.5277 F2250
G1 X27.15 Y29.95 Z31 E1.5277 F2250
G1 X25.64 Y31.25 Z31 E1.5277 F2250
G1 X24.08 Y32.47 Z31 E1.5277 F2250
G1 X22.46 Y33.61 Z31 E1.5277 F2250
G1 X20.78 Y34.67 Z31 E1.5277 F2250
G1 X19.05 Y35.65 Z31 E1.5277 F2250
G1 X17.28 Y36.54 Z31 E1.5277 F2250
G1 X15.47 Y37.34 Z31 E1.5277 F2250
G1 X13.62 Y38.06 Z31 E1.5277 F2250
G1 X11.73 Y38.68 Z31 E1.5277 F2250
G1 X9.82 Y39.21 Z31 E1.5277 F2250
G1 X7.89 Y39.64 Z31 E1.5277 F2250
G1 X5.93 Y39.98 Z31 E1.5277 F2250
G1 X3.96 Y40.23 Z31 E1.5277 F2250
G1 X1.98 Y40.37 Z31 E1.5277 F2250
G1 X0 Y40.42 Z31 E1.5277 F2250
G1 X-1.98 Y40.37 Z31 E1.5277 F2250
G1 X-3.96 Y40.23 Z31 E1.5277 F2250
G1 X-5.93 Y39.98 Z31 E1.5277 F2250
G1 X-7.89 Y39.64 Z31 E1.5277 F2250
G1 X-9.82 Y39.21 Z31 E1.5277 F2250
G1 X-11.73 Y38.68 Z31 E1.5277 F2250
G1 X-13.62 Y38.06 Z31 E1.5277 F2250
G1 X-15.47 Y37.34 Z31 E1.5277 F2250
G1 X-17.28 Y36.54 Z31 E1.5277 F2250
G1 X-19.05 Y35.65 Z31 E1.5277 F2250
G1 X-20.78 Y34.67 Z31 E1.5277 F2250
G1 X-22.46 Y33.61 Z31 E1.5277 F2250
G1 X-24.08 Y32.47 Z31 E1.5277 F2250
G1 X-25.64 Y31.25 Z31 E1.5277 F2250
G1 X-27.15 Y29.95 Z31 E1.5277 F2250
G1 X-28.58 Y28.58 Z31 E1.5277 F2250
G1 X-29.95 Y27.15 Z31 E1.5277 F2250
G1 X-31.25 Y25.64 Z31 E1.5277 F2250
G1 X-32.47 Y24.08 Z31 E1.5277 F2250
G1 X-33.61 Y22.46 Z31 E1.5277 F2250
G1 X-34.67 Y20.78 Z31 E1.5277 F2250
G1 X-35.65 Y19.05 Z31 E1.5277 F2250
G1 X-36.54 Y17.28 Z31 E1.5277 F2250
G1 X-37.34 Y15.47 Z31 E1.5277 F2250
G1 X-38.06 Y13.62 Z31 E1.5277 F2250
G1 X-38.68 Y11.73 Z31 E1.5277 F2250
G1 X-39.21 Y9.82 Z31 E1.5277 F2250
G1 X-39.64 Y7.89 Z31 E1.5277 F2250
G1 X-39.98 Y5.93 Z31 E1.5277 F2250
G1 X-40.23 Y3.96 Z31 E1.5277 F2250
G1 X-40.37 Y1.98 Z31 E1.5277 F2250
G1 X-40.42 Y0 Z31 E1.5277 F2250
;START NEW LEVEL
G1 X-40.37 Y-1.98 Z32 E2.2217 F2250
G1 X-40.23 Y-3.96 Z32 E1.5277 F2250
G1 X-39.98 Y-5.93 Z32 E1.5277 F2250
G1 X-39.64 Y-7.89 Z32 E1.5277 F2250
G1 X-39.21 Y-9.82 Z32 E1.5277 F2250
G1 X-38.68 Y-11.73 Z32 E1.5277 F2250
G1 X-38.06 Y-13.62 Z32 E1.5277 F2250
G1 X-37.34 Y-15.47 Z32 E1.5277 F2250
G1 X-36.54 Y-17.28 Z32 E1.5277 F2250
G1 X-35.65 Y-19.05 Z32 E1.5277 F2250
G1 X-34.67 Y-20.78 Z32 E1.5277 F2250
G1 X-33.61 Y-22.46 Z32 E1.5277 F2250
G1 X-32.47 Y-24.08 Z32 E1.5277 F2250
G1 X-31.25 Y-25.64 Z32 E1.5277 F2250
G1 X-29.95 Y-27.15 Z32 E1.5277 F2250
G1 X-28.58 Y-28.58 Z32 E1.5277 F2250
G1 X-27.15 Y-29.95 Z32 E1.5277 F2250
G1 X-25.64 Y-31.25 Z32 E1.5277 F2250
G1 X-24.08 Y-32.47 Z32 E1.5277 F2250
G1 X-22.46 Y-33.61 Z32 E1.5277 F2250
G1 X-20.78 Y-34.67 Z32 E1.5277 F2250
G1 X-19.05 Y-35.65 Z32 E1.5277 F2250
G1 X-17.28 Y-36.54 Z32 E1.5277 F2250
G1 X-15.47 Y-37.34 Z32 E1.5277 F2250
G1 X-13.62 Y-38.06 Z32 E1.5277 F2250
G1 X-11.73 Y-38.68 Z32 E1.5277 F2250
G1 X-9.82 Y-39.21 Z32 E1.5277 F2250
G1 X-7.89 Y-39.64 Z32 E1.5277 F2250
G1 X-5.93 Y-39.98 Z32 E1.5277 F2250
G1 X-3.96 Y-40.23 Z32 E1.5277 F2250
G1 X-1.98 Y-40.37 Z32 E1.5277 F2250
G1 X0 Y-40.42 Z32 E1.5277 F2250
G1 X1.98 Y-40.37 Z32 E1.5277 F2250
G1 X3.96 Y-40.23 Z32 E1.5277 F2250
G1 X5.93 Y-39.98 Z32 E1.5277 F2250
G1 X7.89 Y-39.64 Z32 E1.5277 F2250
G1 X9.82 Y-39.21 Z32 E1.5277 F2250
G1 X11.73 Y-38.68 Z32 E1.5277 F2250
G1 X13.62 Y-38.06 Z32 E1.5277 F2250
G1 X15.47 Y-37.34 Z32 E1.5277 F2250
G1 X17.28 Y-36.54 Z32 E1.5277 F2250
G1 X19.05 Y-35.65 Z32 E1.5277 F2250
G1 X20.78 Y-34.67 Z32 E1.5277 F2250
G1 X22.46 Y-33.61 Z32 E1.5277 F2250
G1 X24.08 Y-32.47 Z32 E1.5277 F2250
G1 X25.64 Y-31.25 Z32 E1.5277 F2250
G1 X27.15 Y-29.95 Z32 E1.5277 F2250
G1 X28.58 Y-28.58 Z32 E1.5277 F2250
G1 X29.95 Y-27.15 Z32 E1.5277 F2250
G1 X31.25 Y-25.64 Z32 E1.5277 F2250
G1 X32.47 Y-24.08 Z32 E1.5277 F2250
G1 X33.61 Y-22.46 Z32 E1.5277 F2250
G1 X34.67 Y-20.78 Z32 E1.5277 F2250
G1 X35.65 Y-19.05 Z32 E1.5277 F2250
G1 X36.54 Y-17.28 Z32 E1.5277 F2250
G1 X37.34 Y-15.47 Z32 E1.5277 F2250
G1 X38.06 Y-13.62 Z32 E1.5277 F2250
G1 X38.68 Y-11.73 Z32 E1.5277 F2250
G1 X39.21 Y-9.82 Z32 E1.5277 F2250
G1 X39.64 Y-7.89 Z32 E1.5277 F2250
G1 X39.98 Y-5.93 Z32 E1.5277 F2250
G1 X40.23 Y-3.96 Z32 E1.5277 F2250
G1 X40.37 Y-1.98 Z32 E1.5277 F2250
G1 X40.42 Y0 Z32 E1.5277 F2250
G1 X40.37 Y1.98 Z32 E1.5277 F2250
G1 X40.23 Y3.96 Z32 E1.5277 F2250
G1 X39.98 Y5.93 Z32 E1.5277 F2250
G1 X39.64 Y7.89 Z32 E1.5277 F2250
G1 X39.21 Y9.82 Z32 E1.5277 F2250
G1 X38.68 Y11.73 Z32 E1.5277 F2250
G1 X38.06 Y13.62 Z32 E1.5277 F2250
G1 X37.34 Y15.47 Z32 E1.5277 F2250
G1 X36.54 Y17.28 Z32 E1.5277 F2250
G1 X35.65 Y19.05 Z32 E1.5277 F2250
G1 X34.67 Y20.78 Z32 E1.5277 F2250
G1 X33.61 Y22.46 Z32 E1.5277 F2250
G1 X32.47 Y24.08 Z32 E1.5277 F2250
G1 X31.25 Y25.64 Z32 E1.5277 F2250
G1 X29.95 Y27.15 Z32 E1.5277 F2250
G1 X28.58 Y28.58 Z32 E1.5277 F2250
G1 X27.15 Y29.95 Z32 E1.5277 F2250
G1 X25.64 Y31.25 Z32 E1.5277 F2250
G1 X24.08 Y32.47 Z32 E1.5277 F2250
G1 X22.46 Y33.61 Z32 E1.5277 F2250
G1 X20.78 Y34.67 Z32 E1.5277 F2250
G1 X19.05 Y35.65 Z32 E1.5277 F2250
G1 X17.28 Y36.54 Z32 E1.5277 F2250
G1 X15.47 Y37.34 Z32 E1.5277 F2250
G1 X13.62 Y38.06 Z32 E1.5277 F2250
G1 X11.73 Y38.68 Z32 E1.5277 F2250
G1 X9.82 Y39.21 Z32 E1.5277 F2250
G1 X7.89 Y39.64 Z32 E1.5277 F2250
G1 X5.93 Y39.98 Z32 E1.5277 F2250
G1 X3.96 Y40.23 Z32 E1.5277 F2250
G1 X1.98 Y40.37 Z32 E1.5277 F2250
G1 X0 Y40.42 Z32 E1.5277 F2250
G1 X-1.98 Y40.37 Z32 E1.5277 F2250
G1 X-3.96 Y40.23 Z32 E1.5277 F2250
G1 X-5.93 Y39.98 Z32 E1.5277 F2250
G1 X-7.89 Y39.64 Z32 E1.5277 F2250
G1 X-9.82 Y39.21 Z32 E1.5277 F2250
G1 X-11.73 Y38.68 Z32 E1.5277 F2250
G1 X-13.62 Y38.06 Z32 E1.5277 F2250
G1 X-15.47 Y37.34 Z32 E1.5277 F2250
G1 X-17.28 Y36.54 Z32 E1.5277 F2250
G1 X-19.05 Y35.65 Z32 E1.5277 F2250
G1 X-20.78 Y34.67 Z32 E1.5277 F2250
G1 X-22.46 Y33.61 Z32 E1.5277 F2250
G1 X-24.08 Y32.47 Z32 E1.5277 F2250
G1 X-25.64 Y31.25 Z32 E1.5277 F2250
G1 X-27.15 Y29.95 Z32 E1.5277 F2250
G1 X-28.58 Y28.58 Z32 E1.5277 F2250
G1 X-29.95 Y27.15 Z32 E1.5277 F2250
G1 X-31.25 Y25.64 Z32 E1.5277 F2250
G1 X-32.47 Y24.08 Z32 E1.5277 F2250
G1 X-33.61 Y22.46 Z32 E1.5277 F2250
G1 X-34.67 Y20.78 Z32 E1.5277 F2250
G1 X-35.65 Y19.05 Z32 E1.5277 F2250
G1 X-36.54 Y17.28 Z32 E1.5277 F2250
G1 X-37.34 Y15.47 Z32 E1.5277 F2250
G1 X-38.06 Y13.62 Z32 E1.5277 F2250
G1 X-38.68 Y11.73 Z32 E1.5277 F2250
G1 X-39.21 Y9.82 Z32 E1.5277 F2250
G1 X-39.64 Y7.89 Z32 E1.5277 F2250
G1 X-39.98 Y5.93 Z32 E1.5277 F2250
G1 X-40.23 Y3.96 Z32 E1.5277 F2250
G1 X-40.37 Y1.98 Z32 E1.5277 F2250
G1 X-40.42 Y0 Z32 E1.5277 F2250
;START NEW LEVEL
G1 X-40.37 Y-1.98 Z33 E2.2217 F2250
G1 X-40.23 Y-3.96 Z33 E1.5277 F2250
G1 X-39.98 Y-5.93 Z33 E1.5277 F2250
G1 X-39.64 Y-7.89 Z33 E1.5277 F2250
G1 X-39.21 Y-9.82 Z33 E1.5277 F2250
G1 X-38.68 Y-11.73 Z33 E1.5277 F2250
G1 X-38.06 Y-13.62 Z33 E1.5277 F2250
G1 X-37.34 Y-15.47 Z33 E1.5277 F2250
G1 X-36.54 Y-17.28 Z33 E1.5277 F2250
