;generated by ProvelPrint 1.4.4 on Wed, 13 Aug 2025 23:53:56 GMT
;TYPE:Custom
;metadata
;estimated printing time (normal mode)="4m 4s"
;customInfo material="cp1"
;customInfo nozzleSize="5mm"
;customInfo secondsPerLayer="8"
;customInfo cupSize="84x25 R"
;customInfo nozzleTemp="200C"
;customInfo layerHeight="2mm"
;# START GCODE SEQUENCE FOR CUP PRINT#;
G21 ; Set units to millimeters
G90 ; Use absolute positioning
M83 ; use relative distances for extrusion
;## Set temperatures ##
M568 P0 S200 ; set temperature for barrel to 200;
M140 P1 S160  ; set cup heater temperature to 160 and continue
;## Home ##
;G28
;## move to prime position/ pickup cup heater start position ##
G1 Y0 Z48 F6000 ;Z down to cup height + 10 , Y moves back to cup center
G1 X-90 ; only once at correct Z height move in to register with cup heater for pickup
M116 S10 ; wait for temperatures to be reached +/-10C (including cup heater)
;##cup heater removal sequence##
M140 P1 S0 ;cup heater off
set global.pelletFeedOn = true  ; enable pellet feed
G1 Z70 F6000; Z moves up to pick up cup heater
G1 X120 F6000; X right to park cup heater
G1 Z15 F6000; Z down to place cup heater on bed
G1 X95 F6000; X left to disengage cup heater
G1 Z30 F6000; Z up to CH + 5 for groove fill
M98 P"0:/sys/provel/prime.g"   ;prime extruder
;##Cup Layer 1
G1 X50 Y0 F6000 ; Move to start of pre cup layer 1 extrusion
G1 E15 ; extrude a bit to make up for any ooze
G1 X36 Y0 E10 F2250 ; Move to start of circle at the edge, continue slight extrusion
;Extrude in a circle A
G1 X38.5 F2250 	     		; 7.16.25 move back to cup
G3 X38.5 Y0 I-38.5 J0 E255 F1200 ; Counter-Clockwise circle around (0,0) with radius 39mm (1030 tested in practice complete cup layer 1).
;#End of start gcode sequence for cup print#
;##Spiral vase mode socket print to start immediately following this.
;--------print file in here--------
G1 X38.5 Y0 Z30 F2250
;START NEW LEVEL
M106 P2 S0 ; set fan speed
G1 X40.01 Y0 Z31 E3.62 F1885
G1 X39.97 Y1.96 Z31.02 E3.92 F1885
G1 X39.82 Y3.92 Z31.03 E3.93 F1885
G1 X39.58 Y5.87 Z31.05 E3.93 F1885
G1 X39.25 Y7.81 Z31.06 E3.94 F1885
G1 X38.81 Y9.72 Z31.08 E3.92 F1885
G1 X38.29 Y11.62 Z31.09 E3.94 F1885
G1 X37.67 Y13.48 Z31.11 E3.92 F1885
G1 X36.97 Y15.31 Z31.13 E3.92 F1885
G1 X36.17 Y17.11 Z31.14 E3.94 F1885
G1 X35.29 Y18.86 Z31.16 E3.92 F1885
G1 X34.32 Y20.57 Z31.17 E3.93 F1885
G1 X33.27 Y22.23 Z31.19 E3.93 F1885
G1 X32.14 Y23.84 Z31.2 E3.93 F1885
G1 X30.93 Y25.38 Z31.22 E3.92 F1885
G1 X29.65 Y26.87 Z31.23 E3.93 F1885
G1 X28.29 Y28.29 Z31.25 E3.93 F1885
G1 X26.87 Y29.65 Z31.27 E3.93 F1885
G1 X25.38 Y30.93 Z31.28 E3.93 F1885
G1 X23.84 Y32.14 Z31.3 E3.92 F1885
G1 X22.23 Y33.27 Z31.31 E3.93 F1885
G1 X20.57 Y34.32 Z31.33 E3.93 F1885
G1 X18.86 Y35.29 Z31.34 E3.93 F1885
G1 X17.11 Y36.17 Z31.36 E3.92 F1885
G1 X15.31 Y36.97 Z31.38 E3.94 F1885
G1 X13.48 Y37.67 Z31.39 E3.92 F1885
G1 X11.62 Y38.29 Z31.41 E3.92 F1885
G1 X9.72 Y38.81 Z31.42 E3.94 F1885
G1 X7.81 Y39.25 Z31.44 E3.92 F1885
G1 X5.87 Y39.58 Z31.45 E3.94 F1885
G1 X3.92 Y39.82 Z31.47 E3.93 F1885
G1 X1.96 Y39.97 Z31.48 E3.93 F1885
G1 X0 Y40.01 Z31.5 E3.92 F1885
G1 X-1.96 Y39.97 Z31.52 E3.92 F1885
G1 X-3.92 Y39.82 Z31.53 E3.93 F1885
G1 X-5.87 Y39.58 Z31.55 E3.93 F1885
G1 X-7.81 Y39.25 Z31.56 E3.94 F1885
G1 X-9.72 Y38.81 Z31.58 E3.92 F1885
G1 X-11.62 Y38.29 Z31.59 E3.94 F1885
G1 X-13.48 Y37.67 Z31.61 E3.92 F1885
G1 X-15.31 Y36.97 Z31.63 E3.92 F1885
G1 X-17.11 Y36.17 Z31.64 E3.94 F1885
G1 X-18.86 Y35.29 Z31.66 E3.92 F1885
G1 X-20.57 Y34.32 Z31.67 E3.93 F1885
G1 X-22.23 Y33.27 Z31.69 E3.93 F1885
G1 X-23.84 Y32.14 Z31.7 E3.93 F1885
G1 X-25.38 Y30.93 Z31.72 E3.92 F1885
G1 X-26.87 Y29.65 Z31.73 E3.93 F1885
G1 X-28.29 Y28.29 Z31.75 E3.93 F1885
G1 X-29.65 Y26.87 Z31.77 E3.93 F1885
G1 X-30.93 Y25.38 Z31.78 E3.93 F1885
G1 X-32.14 Y23.84 Z31.8 E3.92 F1885
G1 X-33.27 Y22.23 Z31.81 E3.93 F1885
G1 X-34.32 Y20.57 Z31.83 E3.93 F1885
G1 X-35.29 Y18.86 Z31.84 E3.93 F1885
G1 X-36.17 Y17.11 Z31.86 E3.92 F1885
G1 X-36.97 Y15.31 Z31.88 E3.94 F1885
G1 X-37.67 Y13.48 Z31.89 E3.92 F1885
G1 X-38.29 Y11.62 Z31.91 E3.92 F1885
G1 X-38.81 Y9.72 Z31.92 E3.94 F1885
G1 X-39.25 Y7.81 Z31.94 E3.92 F1885
G1 X-39.58 Y5.87 Z31.95 E3.94 F1885
G1 X-39.82 Y3.92 Z31.97 E3.93 F1885
G1 X-39.97 Y1.96 Z31.98 E3.93 F1885
G1 X-40.01 Y0 Z32 E3.92 F1885
G1 X-39.97 Y-1.96 Z32.02 E3.92 F1885
G1 X-39.82 Y-3.92 Z32.03 E3.93 F1885
G1 X-39.58 Y-5.87 Z32.05 E3.93 F1885
G1 X-39.25 Y-7.81 Z32.06 E3.94 F1885
G1 X-38.81 Y-9.72 Z32.08 E3.92 F1885
G1 X-38.29 Y-11.62 Z32.09 E3.94 F1885
G1 X-37.67 Y-13.48 Z32.11 E3.92 F1885
G1 X-36.97 Y-15.31 Z32.13 E3.92 F1885
G1 X-36.17 Y-17.11 Z32.14 E3.94 F1885
G1 X-35.29 Y-18.86 Z32.16 E3.92 F1885
G1 X-34.32 Y-20.57 Z32.17 E3.93 F1885
G1 X-33.27 Y-22.23 Z32.19 E3.93 F1885
G1 X-32.14 Y-23.84 Z32.2 E3.93 F1885
G1 X-30.93 Y-25.38 Z32.22 E3.92 F1885
G1 X-29.65 Y-26.87 Z32.23 E3.93 F1885
G1 X-28.29 Y-28.29 Z32.25 E3.93 F1885
G1 X-26.87 Y-29.65 Z32.27 E3.93 F1885
G1 X-25.38 Y-30.93 Z32.28 E3.93 F1885
G1 X-23.84 Y-32.14 Z32.3 E3.92 F1885
G1 X-22.23 Y-33.27 Z32.31 E3.93 F1885
G1 X-20.57 Y-34.32 Z32.33 E3.93 F1885
G1 X-18.86 Y-35.29 Z32.34 E3.93 F1885
G1 X-17.11 Y-36.17 Z32.36 E3.92 F1885
G1 X-15.31 Y-36.97 Z32.38 E3.94 F1885
G1 X-13.48 Y-37.67 Z32.39 E3.92 F1885
G1 X-11.62 Y-38.29 Z32.41 E3.92 F1885
G1 X-9.72 Y-38.81 Z32.42 E3.94 F1885
G1 X-7.81 Y-39.25 Z32.44 E3.92 F1885
G1 X-5.87 Y-39.58 Z32.45 E3.94 F1885
G1 X-3.92 Y-39.82 Z32.47 E3.93 F1885
G1 X-1.96 Y-39.97 Z32.48 E3.93 F1885
G1 X0 Y-40.01 Z32.5 E3.92 F1885
G1 X1.96 Y-39.97 Z32.52 E3.92 F1885
G1 X3.92 Y-39.82 Z32.53 E3.93 F1885
G1 X5.87 Y-39.58 Z32.55 E3.93 F1885
G1 X7.81 Y-39.25 Z32.56 E3.94 F1885
G1 X9.72 Y-38.81 Z32.58 E3.92 F1885
G1 X11.62 Y-38.29 Z32.59 E3.94 F1885
G1 X13.48 Y-37.67 Z32.61 E3.92 F1885
G1 X15.31 Y-36.97 Z32.63 E3.92 F1885
G1 X17.11 Y-36.17 Z32.64 E3.94 F1885
G1 X18.86 Y-35.29 Z32.66 E3.92 F1885
G1 X20.57 Y-34.32 Z32.67 E3.93 F1885
G1 X22.23 Y-33.27 Z32.69 E3.93 F1885
G1 X23.84 Y-32.14 Z32.7 E3.93 F1885
G1 X25.38 Y-30.93 Z32.72 E3.92 F1885
G1 X26.87 Y-29.65 Z32.73 E3.93 F1885
G1 X28.29 Y-28.29 Z32.75 E3.93 F1885
G1 X29.65 Y-26.87 Z32.77 E3.93 F1885
G1 X30.93 Y-25.38 Z32.78 E3.93 F1885
G1 X32.14 Y-23.84 Z32.8 E3.92 F1885
G1 X33.27 Y-22.23 Z32.81 E3.93 F1885
G1 X34.32 Y-20.57 Z32.83 E3.93 F1885
G1 X35.29 Y-18.86 Z32.84 E3.93 F1885
G1 X36.17 Y-17.11 Z32.86 E3.92 F1885
G1 X36.97 Y-15.31 Z32.88 E3.94 F1885
G1 X37.67 Y-13.48 Z32.89 E3.92 F1885
G1 X38.29 Y-11.62 Z32.91 E3.92 F1885
G1 X38.81 Y-9.72 Z32.92 E3.94 F1885
G1 X39.25 Y-7.81 Z32.94 E3.92 F1885
G1 X39.58 Y-5.87 Z32.95 E3.94 F1885
G1 X39.82 Y-3.92 Z32.97 E3.93 F1885
G1 X39.97 Y-1.96 Z32.98 E3.93 F1885
G1 X40.01 Y0 Z33 E3.92 F1885
;START NEW LEVEL
M106 P2 S0.5 ; set fan speed
G1 X40.01 Y0 Z33 E0 F1885
G1 X39.97 Y1.96 Z33.02 E3.92 F1885
G1 X39.82 Y3.92 Z33.03 E3.93 F1885
G1 X39.58 Y5.87 Z33.05 E3.93 F1885
G1 X39.25 Y7.81 Z33.06 E3.94 F1885
G1 X38.81 Y9.72 Z33.08 E3.92 F1885
G1 X38.29 Y11.62 Z33.09 E3.94 F1885
G1 X37.67 Y13.48 Z33.11 E3.92 F1885
G1 X36.97 Y15.31 Z33.13 E3.92 F1885
G1 X36.17 Y17.11 Z33.14 E3.94 F1885
G1 X35.29 Y18.86 Z33.16 E3.92 F1885
G1 X34.32 Y20.57 Z33.17 E3.93 F1885
G1 X33.27 Y22.23 Z33.19 E3.93 F1885
G1 X32.14 Y23.84 Z33.2 E3.93 F1885
G1 X30.93 Y25.38 Z33.22 E3.92 F1885
G1 X29.65 Y26.87 Z33.23 E3.93 F1885
G1 X28.29 Y28.29 Z33.25 E3.93 F1885
G1 X26.87 Y29.65 Z33.27 E3.93 F1885
G1 X25.38 Y30.93 Z33.28 E3.93 F1885
G1 X23.84 Y32.14 Z33.3 E3.92 F1885
G1 X22.23 Y33.27 Z33.31 E3.93 F1885
G1 X20.57 Y34.32 Z33.33 E3.93 F1885
G1 X18.86 Y35.29 Z33.34 E3.93 F1885
G1 X17.11 Y36.17 Z33.36 E3.92 F1885
G1 X15.31 Y36.97 Z33.38 E3.94 F1885
G1 X13.48 Y37.67 Z33.39 E3.92 F1885
G1 X11.62 Y38.29 Z33.41 E3.92 F1885
G1 X9.72 Y38.81 Z33.42 E3.94 F1885
G1 X7.81 Y39.25 Z33.44 E3.92 F1885
G1 X5.87 Y39.58 Z33.45 E3.94 F1885
G1 X3.92 Y39.82 Z33.47 E3.93 F1885
G1 X1.96 Y39.97 Z33.48 E3.93 F1885
G1 X0 Y40.01 Z33.5 E3.92 F1885
G1 X-1.96 Y39.97 Z33.52 E3.92 F1885
G1 X-3.92 Y39.82 Z33.53 E3.93 F1885
G1 X-5.87 Y39.58 Z33.55 E3.93 F1885
G1 X-7.81 Y39.25 Z33.56 E3.94 F1885
G1 X-9.72 Y38.81 Z33.58 E3.92 F1885
G1 X-11.62 Y38.29 Z33.59 E3.94 F1885
G1 X-13.48 Y37.67 Z33.61 E3.92 F1885
G1 X-15.31 Y36.97 Z33.63 E3.92 F1885
G1 X-17.11 Y36.17 Z33.64 E3.94 F1885
G1 X-18.86 Y35.29 Z33.66 E3.92 F1885
G1 X-20.57 Y34.32 Z33.67 E3.93 F1885
G1 X-22.23 Y33.27 Z33.69 E3.93 F1885
G1 X-23.84 Y32.14 Z33.7 E3.93 F1885
G1 X-25.38 Y30.93 Z33.72 E3.92 F1885
G1 X-26.87 Y29.65 Z33.73 E3.93 F1885
G1 X-28.29 Y28.29 Z33.75 E3.93 F1885
G1 X-29.65 Y26.87 Z33.77 E3.93 F1885
G1 X-30.93 Y25.38 Z33.78 E3.93 F1885
G1 X-32.14 Y23.84 Z33.8 E3.92 F1885
G1 X-33.27 Y22.23 Z33.81 E3.93 F1885
G1 X-34.32 Y20.57 Z33.83 E3.93 F1885
G1 X-35.29 Y18.86 Z33.84 E3.93 F1885
G1 X-36.17 Y17.11 Z33.86 E3.92 F1885
G1 X-36.97 Y15.31 Z33.88 E3.94 F1885
G1 X-37.67 Y13.48 Z33.89 E3.92 F1885
G1 X-38.29 Y11.62 Z33.91 E3.92 F1885
G1 X-38.81 Y9.72 Z33.92 E3.94 F1885
G1 X-39.25 Y7.81 Z33.94 E3.92 F1885
G1 X-39.58 Y5.87 Z33.95 E3.94 F1885
G1 X-39.82 Y3.92 Z33.97 E3.93 F1885
G1 X-39.97 Y1.96 Z33.98 E3.93 F1885
G1 X-40.01 Y0 Z34 E3.92 F1885
G1 X-39.97 Y-1.96 Z34.02 E3.92 F1885
G1 X-39.82 Y-3.92 Z34.03 E3.93 F1885
G1 X-39.58 Y-5.87 Z34.05 E3.93 F1885
G1 X-39.25 Y-7.81 Z34.06 E3.94 F1885
G1 X-38.81 Y-9.72 Z34.08 E3.92 F1885
G1 X-38.29 Y-11.62 Z34.09 E3.94 F1885
G1 X-37.67 Y-13.48 Z34.11 E3.92 F1885
G1 X-36.97 Y-15.31 Z34.13 E3.92 F1885
G1 X-36.17 Y-17.11 Z34.14 E3.94 F1885
G1 X-35.29 Y-18.86 Z34.16 E3.92 F1885
G1 X-34.32 Y-20.57 Z34.17 E3.93 F1885
G1 X-33.27 Y-22.23 Z34.19 E3.93 F1885
G1 X-32.14 Y-23.84 Z34.2 E3.93 F1885
G1 X-30.93 Y-25.38 Z34.22 E3.92 F1885
G1 X-29.65 Y-26.87 Z34.23 E3.93 F1885
G1 X-28.29 Y-28.29 Z34.25 E3.93 F1885
G1 X-26.87 Y-29.65 Z34.27 E3.93 F1885
G1 X-25.38 Y-30.93 Z34.28 E3.93 F1885
G1 X-23.84 Y-32.14 Z34.3 E3.92 F1885
G1 X-22.23 Y-33.27 Z34.31 E3.93 F1885
G1 X-20.57 Y-34.32 Z34.33 E3.93 F1885
G1 X-18.86 Y-35.29 Z34.34 E3.93 F1885
G1 X-17.11 Y-36.17 Z34.36 E3.92 F1885
G1 X-15.31 Y-36.97 Z34.38 E3.94 F1885
G1 X-13.48 Y-37.67 Z34.39 E3.92 F1885
G1 X-11.62 Y-38.29 Z34.41 E3.92 F1885
G1 X-9.72 Y-38.81 Z34.42 E3.94 F1885
G1 X-7.81 Y-39.25 Z34.44 E3.92 F1885
G1 X-5.87 Y-39.58 Z34.45 E3.94 F1885
G1 X-3.92 Y-39.82 Z34.47 E3.93 F1885
G1 X-1.96 Y-39.97 Z34.48 E3.93 F1885
G1 X0 Y-40.01 Z34.5 E3.92 F1885
G1 X1.96 Y-39.97 Z34.52 E3.92 F1885
G1 X3.92 Y-39.82 Z34.53 E3.93 F1885
G1 X5.87 Y-39.58 Z34.55 E3.93 F1885
G1 X7.81 Y-39.25 Z34.56 E3.94 F1885
G1 X9.72 Y-38.81 Z34.58 E3.92 F1885
G1 X11.62 Y-38.29 Z34.59 E3.94 F1885
G1 X13.48 Y-37.67 Z34.61 E3.92 F1885
G1 X15.31 Y-36.97 Z34.63 E3.92 F1885
G1 X17.11 Y-36.17 Z34.64 E3.94 F1885
G1 X18.86 Y-35.29 Z34.66 E3.92 F1885
G1 X20.57 Y-34.32 Z34.67 E3.93 F1885
G1 X22.23 Y-33.27 Z34.69 E3.93 F1885
G1 X23.84 Y-32.14 Z34.7 E3.93 F1885
G1 X25.38 Y-30.93 Z34.72 E3.92 F1885
G1 X26.87 Y-29.65 Z34.73 E3.93 F1885
G1 X28.29 Y-28.29 Z34.75 E3.93 F1885
G1 X29.65 Y-26.87 Z34.77 E3.93 F1885
G1 X30.93 Y-25.38 Z34.78 E3.93 F1885
G1 X32.14 Y-23.84 Z34.8 E3.92 F1885
G1 X33.27 Y-22.23 Z34.81 E3.93 F1885
G1 X34.32 Y-20.57 Z34.83 E3.93 F1885
G1 X35.29 Y-18.86 Z34.84 E3.93 F1885
G1 X36.17 Y-17.11 Z34.86 E3.92 F1885
G1 X36.97 Y-15.31 Z34.88 E3.94 F1885
G1 X37.67 Y-13.48 Z34.89 E3.92 F1885
G1 X38.29 Y-11.62 Z34.91 E3.92 F1885
G1 X38.81 Y-9.72 Z34.92 E3.94 F1885
G1 X39.25 Y-7.81 Z34.94 E3.92 F1885
G1 X39.58 Y-5.87 Z34.95 E3.94 F1885
G1 X39.82 Y-3.92 Z34.97 E3.93 F1885
G1 X39.97 Y-1.96 Z34.98 E3.93 F1885
G1 X40.01 Y0 Z35 E3.92 F1885
;START NEW LEVEL
G1 X40.01 Y0 Z35 E0 F1885
G1 X39.97 Y1.96 Z35.02 E3.92 F1885
G1 X39.82 Y3.92 Z35.03 E3.93 F1885
G1 X39.58 Y5.87 Z35.05 E3.93 F1885
G1 X39.25 Y7.81 Z35.06 E3.94 F1885
G1 X38.81 Y9.72 Z35.08 E3.92 F1885
G1 X38.29 Y11.62 Z35.09 E3.94 F1885
G1 X37.67 Y13.48 Z35.11 E3.92 F1885
G1 X36.97 Y15.31 Z35.13 E3.92 F1885
G1 X36.17 Y17.11 Z35.14 E3.94 F1885
G1 X35.29 Y18.86 Z35.16 E3.92 F1885
G1 X34.32 Y20.57 Z35.17 E3.93 F1885
G1 X33.27 Y22.23 Z35.19 E3.93 F1885
G1 X32.14 Y23.84 Z35.2 E3.93 F1885
G1 X30.93 Y25.38 Z35.22 E3.92 F1885
G1 X29.65 Y26.87 Z35.23 E3.93 F1885
G1 X28.29 Y28.29 Z35.25 E3.93 F1885
G1 X26.87 Y29.65 Z35.27 E3.93 F1885
G1 X25.38 Y30.93 Z35.28 E3.93 F1885
G1 X23.84 Y32.14 Z35.3 E3.92 F1885
G1 X22.23 Y33.27 Z35.31 E3.93 F1885
G1 X20.57 Y34.32 Z35.33 E3.93 F1885
G1 X18.86 Y35.29 Z35.34 E3.93 F1885
G1 X17.11 Y36.17 Z35.36 E3.92 F1885
G1 X15.31 Y36.97 Z35.38 E3.94 F1885
G1 X13.48 Y37.67 Z35.39 E3.92 F1885
G1 X11.62 Y38.29 Z35.41 E3.92 F1885
G1 X9.72 Y38.81 Z35.42 E3.94 F1885
G1 X7.81 Y39.25 Z35.44 E3.92 F1885
G1 X5.87 Y39.58 Z35.45 E3.94 F1885
G1 X3.92 Y39.82 Z35.47 E3.93 F1885
G1 X1.96 Y39.97 Z35.48 E3.93 F1885
G1 X0 Y40.01 Z35.5 E3.92 F1885
G1 X-1.96 Y39.97 Z35.52 E3.92 F1885
G1 X-3.92 Y39.82 Z35.53 E3.93 F1885
G1 X-5.87 Y39.58 Z35.55 E3.93 F1885
G1 X-7.81 Y39.25 Z35.56 E3.94 F1885
G1 X-9.72 Y38.81 Z35.58 E3.92 F1885
G1 X-11.62 Y38.29 Z35.59 E3.94 F1885
G1 X-13.48 Y37.67 Z35.61 E3.92 F1885
G1 X-15.31 Y36.97 Z35.63 E3.92 F1885
G1 X-17.11 Y36.17 Z35.64 E3.94 F1885
G1 X-18.86 Y35.29 Z35.66 E3.92 F1885
G1 X-20.57 Y34.32 Z35.67 E3.93 F1885
G1 X-22.23 Y33.27 Z35.69 E3.93 F1885
G1 X-23.84 Y32.14 Z35.7 E3.93 F1885
G1 X-25.38 Y30.93 Z35.72 E3.92 F1885
G1 X-26.87 Y29.65 Z35.73 E3.93 F1885
G1 X-28.29 Y28.29 Z35.75 E3.93 F1885
G1 X-29.65 Y26.87 Z35.77 E3.93 F1885
G1 X-30.93 Y25.38 Z35.78 E3.93 F1885
G1 X-32.14 Y23.84 Z35.8 E3.92 F1885
G1 X-33.27 Y22.23 Z35.81 E3.93 F1885
G1 X-34.32 Y20.57 Z35.83 E3.93 F1885
G1 X-35.29 Y18.86 Z35.84 E3.93 F1885
G1 X-36.17 Y17.11 Z35.86 E3.92 F1885
G1 X-36.97 Y15.31 Z35.88 E3.94 F1885
G1 X-37.67 Y13.48 Z35.89 E3.92 F1885
G1 X-38.29 Y11.62 Z35.91 E3.92 F1885
G1 X-38.81 Y9.72 Z35.92 E3.94 F1885
G1 X-39.25 Y7.81 Z35.94 E3.92 F1885
G1 X-39.58 Y5.87 Z35.95 E3.94 F1885
G1 X-39.82 Y3.92 Z35.97 E3.93 F1885
G1 X-39.97 Y1.96 Z35.98 E3.93 F1885
G1 X-40.01 Y0 Z36 E3.92 F1885
G1 X-39.97 Y-1.96 Z36.02 E3.92 F1885
G1 X-39.82 Y-3.92 Z36.03 E3.93 F1885
G1 X-39.58 Y-5.87 Z36.05 E3.93 F1885
G1 X-39.25 Y-7.81 Z36.06 E3.94 F1885
G1 X-38.81 Y-9.72 Z36.08 E3.92 F1885
G1 X-38.29 Y-11.62 Z36.09 E3.94 F1885
G1 X-37.67 Y-13.48 Z36.11 E3.92 F1885
G1 X-36.97 Y-15.31 Z36.13 E3.92 F1885
G1 X-36.17 Y-17.11 Z36.14 E3.94 F1885
G1 X-35.29 Y-18.86 Z36.16 E3.92 F1885
G1 X-34.32 Y-20.57 Z36.17 E3.93 F1885
G1 X-33.27 Y-22.23 Z36.19 E3.93 F1885
G1 X-32.14 Y-23.84 Z36.2 E3.93 F1885
G1 X-30.93 Y-25.38 Z36.22 E3.92 F1885
G1 X-29.65 Y-26.87 Z36.23 E3.93 F1885
G1 X-28.29 Y-28.29 Z36.25 E3.93 F1885
G1 X-26.87 Y-29.65 Z36.27 E3.93 F1885
G1 X-25.38 Y-30.93 Z36.28 E3.93 F1885
G1 X-23.84 Y-32.14 Z36.3 E3.92 F1885
G1 X-22.23 Y-33.27 Z36.31 E3.93 F1885
G1 X-20.57 Y-34.32 Z36.33 E3.93 F1885
G1 X-18.86 Y-35.29 Z36.34 E3.93 F1885
G1 X-17.11 Y-36.17 Z36.36 E3.92 F1885
G1 X-15.31 Y-36.97 Z36.38 E3.94 F1885
G1 X-13.48 Y-37.67 Z36.39 E3.92 F1885
G1 X-11.62 Y-38.29 Z36.41 E3.92 F1885
G1 X-9.72 Y-38.81 Z36.42 E3.94 F1885
G1 X-7.81 Y-39.25 Z36.44 E3.92 F1885
G1 X-5.87 Y-39.58 Z36.45 E3.94 F1885
G1 X-3.92 Y-39.82 Z36.47 E3.93 F1885
G1 X-1.96 Y-39.97 Z36.48 E3.93 F1885
G1 X0 Y-40.01 Z36.5 E3.92 F1885
G1 X1.96 Y-39.97 Z36.52 E3.92 F1885
G1 X3.92 Y-39.82 Z36.53 E3.93 F1885
G1 X5.87 Y-39.58 Z36.55 E3.93 F1885
G1 X7.81 Y-39.25 Z36.56 E3.94 F1885
G1 X9.72 Y-38.81 Z36.58 E3.92 F1885
G1 X11.62 Y-38.29 Z36.59 E3.94 F1885
G1 X13.48 Y-37.67 Z36.61 E3.92 F1885
G1 X15.31 Y-36.97 Z36.63 E3.92 F1885
G1 X17.11 Y-36.17 Z36.64 E3.94 F1885
G1 X18.86 Y-35.29 Z36.66 E3.92 F1885
G1 X20.57 Y-34.32 Z36.67 E3.93 F1885
G1 X22.23 Y-33.27 Z36.69 E3.93 F1885
G1 X23.84 Y-32.14 Z36.7 E3.93 F1885
G1 X25.38 Y-30.93 Z36.72 E3.92 F1885
G1 X26.87 Y-29.65 Z36.73 E3.93 F1885
G1 X28.29 Y-28.29 Z36.75 E3.93 F1885
G1 X29.65 Y-26.87 Z36.77 E3.93 F1885
G1 X30.93 Y-25.38 Z36.78 E3.93 F1885
G1 X32.14 Y-23.84 Z36.8 E3.92 F1885
G1 X33.27 Y-22.23 Z36.81 E3.93 F1885
G1 X34.32 Y-20.57 Z36.83 E3.93 F1885
G1 X35.29 Y-18.86 Z36.84 E3.93 F1885
G1 X36.17 Y-17.11 Z36.86 E3.92 F1885
G1 X36.97 Y-15.31 Z36.88 E3.94 F1885
G1 X37.67 Y-13.48 Z36.89 E3.92 F1885
G1 X38.29 Y-11.62 Z36.91 E3.92 F1885
G1 X38.81 Y-9.72 Z36.92 E3.94 F1885
G1 X39.25 Y-7.81 Z36.94 E3.92 F1885
G1 X39.58 Y-5.87 Z36.95 E3.94 F1885
G1 X39.82 Y-3.92 Z36.97 E3.93 F1885
